X:7
T:Strike home ye Britons. JJo.007
B:J.Johnson Choice Collection Vol 8 1758
Z:vmp.Simon Wilson 2013 www.village-music-project.org.uk
Z:Dance added by John Chambers 2017
M:C|
L:1/8
%Q:1/4=100
K:G
   g | egdg BG2g | egdg aA2g | egdg BGcA | dBec BG2 :|
|: d | BdAd BG2A | BcdB cA2d | BdAd BdGg | fedc BG2 :|
%%begintext align
%% First and 2d Cu. set and Right
%% hands and Left half round .| the
%% same back again :| Cross over two
%% Cu. :|| Lead up to the top foot
%% it and cast off :||:
%%endtext
